X: 35788
T: Sally Sloane's
R: jig
M: 6/8
K: Adorian
edB fge|edd efg|edB fgd|eaa age|
edB fge|edd efg|e2 a ged|BcA ABd:|
eaa egg|eaa ged|eaa egg|age dBd|
eaa egg|eaa ged|ged Bde|dBA A3:|

